img/svg/icon-font/resume.svg

<svg width="22" height="22" viewBox="0 0 22 22" fill="none" xmlns="http://www.w3.org/2000/svg">
<g clip-path="url(#clip0)">
<path d="M11.7285 15.3805L6.61752 15.3828C6.61752 15.3828 6.61736 15.3828 6.61719 15.3828C6.14268 15.3828 5.75798 14.9984 5.75781 14.5239C5.75748 14.0493 6.14218 13.6642 6.61668 13.6641L11.7276 13.6617H11.728C12.2025 13.6617 12.5872 14.0461 12.5873 14.5206C12.5877 14.9953 12.2031 15.3801 11.7285 15.3805ZM10.5675 16.7984L6.61668 16.8008C6.14201 16.8011 5.75748 17.1862 5.75781 17.6607C5.75815 18.1352 6.14285 18.5195 6.61719 18.5195H6.61769L10.5685 18.5172C11.0431 18.5168 11.4277 18.1318 11.4273 17.6573C11.427 17.1828 11.0423 16.7984 10.568 16.7984C10.5678 16.7984 10.5676 16.7984 10.5675 16.7984ZM19.5103 16.6386L14.3984 21.7459C14.3982 21.7459 14.3982 21.7459 14.3982 21.746L14.3979 21.7462C14.3969 21.7474 14.3955 21.7484 14.3944 21.7496C14.3756 21.768 14.3561 21.7858 14.3358 21.8024C14.3306 21.8068 14.325 21.8103 14.3197 21.8145C14.3029 21.8276 14.2859 21.8407 14.2681 21.8526C14.2634 21.8558 14.2584 21.8583 14.2535 21.8615C14.2347 21.8736 14.2158 21.8854 14.196 21.8959C14.1926 21.8976 14.1893 21.8991 14.1861 21.9008C14.1644 21.9119 14.1424 21.9226 14.1198 21.932C14.1179 21.9329 14.1161 21.9334 14.1142 21.934C14.0902 21.9438 14.0659 21.9527 14.0409 21.9604C14.0389 21.9609 14.0368 21.9612 14.035 21.9619C14.0102 21.9691 13.9852 21.9757 13.9596 21.9807C13.9539 21.9819 13.9481 21.9824 13.9422 21.9834C13.9205 21.9872 13.8987 21.9909 13.8764 21.9933C13.848 21.9961 13.8195 21.9977 13.7908 21.9977L5.75815 22C3.86232 22 2.32031 20.458 2.32031 18.5625V3.4375C2.32031 1.54201 3.86232 0 5.75781 0H16.3234C18.2188 0 19.7609 1.54201 19.7609 3.4375L19.7619 11.7303C19.7619 12.205 19.3772 12.5898 18.9026 12.5898C18.4279 12.5898 18.0432 12.2051 18.0432 11.7306L18.0422 3.43767C18.0422 2.48984 17.2711 1.71875 16.3234 1.71875H5.75781C4.81015 1.71875 4.03906 2.48984 4.03906 3.4375V18.5625C4.03906 19.5102 4.81015 20.2812 5.75781 20.2812L12.9312 20.2791V18.1781C12.9312 16.5196 14.2806 15.1703 15.9391 15.1703H18.9034C18.9319 15.1703 18.9605 15.1718 18.989 15.1747C19.0013 15.1759 19.013 15.1782 19.0251 15.1799C19.0407 15.1821 19.0563 15.1839 19.0719 15.1871C19.0865 15.19 19.1006 15.194 19.1151 15.1977C19.1278 15.2009 19.1407 15.2036 19.1533 15.2076C19.1678 15.2119 19.1817 15.2173 19.1958 15.2224C19.208 15.2267 19.2205 15.2307 19.2325 15.2358C19.2461 15.2415 19.2592 15.248 19.2723 15.2544C19.2846 15.2601 19.2968 15.2655 19.3086 15.2717C19.3218 15.2789 19.3344 15.287 19.3474 15.2947C19.3584 15.3014 19.3697 15.3076 19.3806 15.315C19.3959 15.3251 19.4105 15.3365 19.4251 15.3476C19.4326 15.3534 19.4407 15.3586 19.4481 15.3649C19.4924 15.4011 19.533 15.4417 19.5692 15.486C19.5748 15.4929 19.5797 15.5003 19.5852 15.5074C19.5968 15.5226 19.6085 15.5377 19.6191 15.5537C19.6256 15.5634 19.6312 15.5737 19.6374 15.5837C19.646 15.5977 19.6545 15.6114 19.6624 15.6259C19.6679 15.6364 19.6726 15.6472 19.6777 15.6577C19.6847 15.6725 19.6919 15.6871 19.6983 15.7022C19.7025 15.7125 19.7059 15.7229 19.7096 15.7331C19.7156 15.7492 19.7216 15.7652 19.7265 15.7816C19.7295 15.7915 19.7317 15.8016 19.7342 15.8115C19.7388 15.8288 19.7435 15.8457 19.7468 15.8632C19.7488 15.8738 19.75 15.8845 19.7517 15.8951C19.7544 15.912 19.7574 15.929 19.7591 15.9463C19.7606 15.9614 19.7608 15.9763 19.7614 15.9914C19.7619 16.0042 19.7633 16.0168 19.7633 16.0299C19.7633 16.0424 19.7619 16.0547 19.7614 16.0671C19.7608 16.0826 19.7606 16.0982 19.7591 16.1136C19.7574 16.1312 19.7542 16.1484 19.7515 16.1656C19.7498 16.1761 19.7488 16.1865 19.7468 16.1967C19.7433 16.2145 19.7386 16.2316 19.7341 16.2489C19.7314 16.2586 19.7294 16.2685 19.7265 16.2783C19.7215 16.2949 19.7153 16.311 19.7094 16.3271C19.7057 16.3374 19.7023 16.3476 19.6982 16.3578C19.6919 16.3729 19.6846 16.3875 19.6775 16.4023C19.6725 16.4129 19.6678 16.4236 19.6622 16.434C19.6545 16.4486 19.6458 16.4624 19.6372 16.4763C19.6312 16.4864 19.6255 16.4965 19.6191 16.5064C19.6082 16.5227 19.5961 16.5381 19.5842 16.5535C19.579 16.5603 19.5744 16.5673 19.5691 16.574C19.5504 16.5963 19.5308 16.618 19.5103 16.6386ZM14.65 18.1781V19.0649L16.8276 16.8891H15.9391C15.2282 16.8891 14.65 17.4675 14.65 18.1781ZM13.7419 12.0312H8.25806C7.82753 12.0312 7.42487 11.8397 7.15312 11.5057C6.88004 11.1702 6.77412 10.7346 6.86224 10.3105C7.10612 9.13606 7.83659 8.15735 8.81396 7.56686C8.48683 7.11938 8.29297 6.56834 8.29297 5.97266C8.29297 4.48 9.50734 3.26562 11 3.26562C12.4927 3.26562 13.707 4.48 13.707 5.97266C13.707 6.56834 13.5132 7.11938 13.1859 7.56686C14.1634 8.15735 14.8937 9.13606 15.1378 10.3105C15.2259 10.7346 15.1198 11.1702 14.8469 11.5057C14.5751 11.8397 14.1725 12.0312 13.7419 12.0312ZM10.0117 5.97266C10.0117 6.51765 10.455 6.96094 11 6.96094C11.545 6.96094 11.9883 6.51765 11.9883 5.97266C11.9883 5.42766 11.545 4.98438 11 4.98438C10.455 4.98438 10.0117 5.42766 10.0117 5.97266ZM13.3557 10.3125C13.0019 9.34822 12.0717 8.67969 11.0225 8.67969H10.9775C9.9283 8.67969 8.99809 9.34822 8.64427 10.3125H13.3557Z" fill="#4C51CC"/>
</g>
<defs>
<clipPath id="clip0">
<rect width="22" height="22" fill="white"/>
</clipPath>
</defs>
</svg>

<svg width="22" height="22" fill="none" xmlns="http://www.w3.org/2000/svg"><g clip-path="url(#clip0)"><path d="M11.729 15.38l-5.111.003a.86.86 0 01-.001-1.719l5.11-.002h.001a.86.86 0 010 1.718zm-1.161 1.418l-3.951.003a.86.86 0 000 1.719l3.952-.003a.86.86 0 00-.001-1.719zm8.942-.16l-5.112 5.108-.004.004a.886.886 0 01-.058.052c-.005.005-.011.008-.016.012a.88.88 0 01-.052.039l-.014.008a.794.794 0 01-.058.035l-.01.005a.932.932 0 01-.066.031l-.006.002a.875.875 0 01-.073.026l-.006.002a.865.865 0 01-.075.019l-.018.002a1.002 1.002 0 01-.151.015L5.758 22a3.441 3.441 0 01-3.438-3.438V3.438A3.441 3.441 0 015.758 0h10.565a3.441 3.441 0 013.438 3.438v8.292a.86.86 0 01-1.718 0V3.439a1.72 1.72 0 00-1.72-1.72H5.758a1.72 1.72 0 00-1.719 1.72v15.124a1.72 1.72 0 001.719 1.72l7.173-.003v-2.1a3.011 3.011 0 013.008-3.009h2.964a.81.81 0 01.086.005c.012 0 .024.003.036.005l.047.007.043.01.038.01.043.015.037.014.04.018.036.018.038.023.034.02c.015.01.03.021.044.033a.856.856 0 01.144.138l.016.021c.012.016.023.03.034.047l.018.03.025.042.016.032.02.044c.005.01.008.02.012.031l.017.049.007.03c.005.017.01.034.013.051l.005.032.007.051c.002.015.002.03.002.045l.002.039-.002.037c0 .016 0 .031-.002.047l-.008.052-.004.03-.013.053-.008.03a.459.459 0 01-.017.048l-.01.03-.022.045-.015.032-.025.042-.018.03c-.01.017-.023.032-.035.047l-.015.021a1.028 1.028 0 01-.059.065zm-4.86 1.54v.887l2.178-2.176h-.889c-.71 0-1.289.579-1.289 1.29zm-.908-6.147H8.258a1.426 1.426 0 01-1.396-1.72 4.212 4.212 0 011.952-2.744 2.693 2.693 0 01-.521-1.594A2.71 2.71 0 0111 3.266a2.71 2.71 0 012.707 2.707c0 .595-.194 1.146-.521 1.594a4.212 4.212 0 011.952 2.743 1.427 1.427 0 01-1.396 1.721zm-3.73-6.058a.99.99 0 001.976 0 .99.99 0 00-1.976 0zm3.344 4.34a2.497 2.497 0 00-2.333-1.633h-.046a2.496 2.496 0 00-2.333 1.633h4.712z" fill="#4C51CC"/></g><defs><clipPath id="clip0"><path fill="#fff" d="M0 0h22v22H0z"/></clipPath></defs></svg>
